src/build/icons/LineIcons/delete.svg

<svg width="40" height="40" version="1.1" viewBox="0 -2 40 40" xmlns="http://www.w3.org/2000/svg">
 <g fill="none" fill-rule="evenodd">
  <g transform="translate(-564,-1085)" fill="#f00">
   <path d="m584 1117c-7.732 0-14-6.27-14-14s6.268-14 14-14 14 6.27 14 14-6.268 14-14 14zm0-30c-8.837 0-16 7.16-16 16s7.163 16 16 16 16-7.16 16-16-7.163-16-16-16zm5.717 10.28c-0.394-0.39-1.031-0.39-1.425 0l-4.298 4.3-4.236-4.24c-0.391-0.39-1.025-0.39-1.414 0-0.391 0.39-0.391 1.03 0 1.42l4.236 4.23-4.266 4.27c-0.393 0.39-0.393 1.03 0 1.43 0.394 0.39 1.032 0.39 1.426 0l4.266-4.27 4.236 4.24c0.391 0.39 1.025 0.39 1.415 0 0.391-0.39 0.391-1.03 0-1.42l-4.237-4.23 4.297-4.3c0.393-0.4 0.393-1.03 0-1.43z"/>
  </g>
 </g>
</svg>

<svg width="40px" height="40px" viewBox="0 0 40 40" version="1.1" xmlns="http://www.w3.org/2000/svg" xmlns:xlink="http://www.w3.org/1999/xlink">
    <defs>
        <filter x="-1.7%" y="-0.9%" width="103.4%" height="101.8%" filterUnits="objectBoundingBox" id="filter-1">
            <feOffset dx="0" dy="2" in="SourceAlpha" result="shadowOffsetOuter1"></feOffset>
            <feGaussianBlur stdDeviation="2" in="shadowOffsetOuter1" result="shadowBlurOuter1"></feGaussianBlur>
            <feColorMatrix values="0 0 0 0 0   0 0 0 0 0   0 0 0 0 0  0 0 0 0.5 0" type="matrix" in="shadowBlurOuter1" result="shadowMatrixOuter1"></feColorMatrix>
            <feMerge>
                <feMergeNode in="shadowMatrixOuter1"></feMergeNode>
                <feMergeNode in="SourceGraphic"></feMergeNode>
            </feMerge>
        </filter>
    </defs>
    <g id="Page-1" stroke="none" stroke-width="1" fill="none" fill-rule="evenodd">
        <g id="Icon-Set" filter="url(#filter-1)" transform="translate(-564.000000, -1085.000000)" fill="#FFFFFE">
            <path d="M584,1117 C576.268,1117 570,1110.73 570,1103 C570,1095.27 576.268,1089 584,1089 C591.732,1089 598,1095.27 598,1103 C598,1110.73 591.732,1117 584,1117 L584,1117 Z M584,1087 C575.163,1087 568,1094.16 568,1103 C568,1111.84 575.163,1119 584,1119 C592.837,1119 600,1111.84 600,1103 C600,1094.16 592.837,1087 584,1087 L584,1087 Z M589.717,1097.28 C589.323,1096.89 588.686,1096.89 588.292,1097.28 L583.994,1101.58 L579.758,1097.34 C579.367,1096.95 578.733,1096.95 578.344,1097.34 C577.953,1097.73 577.953,1098.37 578.344,1098.76 L582.58,1102.99 L578.314,1107.26 C577.921,1107.65 577.921,1108.29 578.314,1108.69 C578.708,1109.08 579.346,1109.08 579.74,1108.69 L584.006,1104.42 L588.242,1108.66 C588.633,1109.05 589.267,1109.05 589.657,1108.66 C590.048,1108.27 590.048,1107.63 589.657,1107.24 L585.42,1103.01 L589.717,1098.71 C590.11,1098.31 590.11,1097.68 589.717,1097.28 L589.717,1097.28 Z" id="Fill-23"></path>
        </g>
    </g>
</svg>
